lib/components/NewIcon/assets/Sun.svg

<svg viewBox="0 0 24 24" fill="none" xmlns="http://www.w3.org/2000/svg">
<path d="M12 2V4M19.0711 4.92893L17.6569 6.34315M22 12H20M19.0711 19.0711L17.6569 17.6569M12 20V22M6.34314 17.6569L4.92893 19.0711M4.00008 12.0001H2.00008M6.34311 6.34322L4.92889 4.92901M16 12C16 14.2091 14.2091 16 12 16C9.79086 16 8 14.2091 8 12C8 9.79086 9.79086 8 12 8C14.2091 8 16 9.79086 16 12Z" stroke="currentColor" fill='#ffffff' stroke-linecap="round"/>
</svg>

<svg xmlns="http://www.w3.org/2000/svg" fill="none" viewBox="0 0 24 24"><path fill="#fff" stroke="currentColor" stroke-linecap="round" d="M12 2v2m7.071.929-1.414 1.414M22 12h-2m-.929 7.071-1.414-1.414M12 20v2m-5.657-4.343L4.93 19.07M4 12.001H2m4.343-5.658L4.93 4.93M16 12a4 4 0 1 1-8 0 4 4 0 0 1 8 0Z"/></svg>
